X:1
T:Old Mother Flanagan
L:1/8
M:2/2
I:linebreak $
K:A
V:1 treble 
V:1
|:"A"{g} a2 a-a fecd | efec"^(E)" BAFE |"A" ABAF EFAB |1,3 cBcd"E7" e4 :|2,4"E7" cABc"A" A4 ::$ %5
"A" ABAF EFAB | cecA"^(E)" BAFG |"A" ABAF EFAB | cBcd"E7" e4 |"D" f2 fd"A" efec | %10
"Bm" BcBA"E7" FEFG |$"A" ABAF EFAB |"E7" cABc"A" A4 :| %13
